alpha-g-box-outline.svg

<svg fill="currentColor" viewBox="0 0 24 24"><path d="M11 7h4v2h-4v6h2v-4h2v4a2 2 0 0 1-2 2h-2a2 2 0 0 1-2-2V9a2 2 0 0 1 2-2M3 5a2 2 0 0 1 2-2h14a2 2 0 0 1 2 2v14a2 2 0 0 1-2 2H5a2 2 0 0 1-2-2zm2 0v14h14V5z"/></svg>

<svg  viewBox="0 0 24 24" fill="currentColor"><path  d="M11,7H15V9H11V15H13V11H15V15A2,2 0 0,1 13,17H11A2,2 0 0,1 9,15V9A2,2 0 0,1 11,7M3,5A2,2 0 0,1 5,3H19A2,2 0 0,1 21,5V19A2,2 0 0,1 19,21H5C3.89,21 3,20.1 3,19V5M5,5V19H19V5H5Z"/></svg>
